icon/cg/arrow-top-left-o.svg

<svg viewBox="0 0 24 24" fill="none" xmlns="http://www.w3.org/2000/svg" height="1em" width="1em">
  <path d="M10 13.9633H8V7.96331H14V9.96331H11.4142L16.7438 15.2929L15.3296 16.7071L10 11.3775L10 13.9633Z" fill="currentColor"/>
  <path fill-rule="evenodd" clip-rule="evenodd" d="M23 12C23 5.92487 18.0751 1 12 1C5.92487 1 1 5.92487 1 12C1 18.0751 5.92487 23 12 23C18.0751 23 23 18.0751 23 12ZM21 12C21 7.02944 16.9706 3 12 3C7.02944 3 3 7.02944 3 12C3 16.9706 7.02944 21 12 21C16.9706 21 21 16.9706 21 12Z" fill="currentColor"/>
</svg>

<svg width="24" height="24" fill="none" xmlns="http://www.w3.org/2000/svg"><path d="M10 13.963H8v-6h6v2h-2.586l5.33 5.33-1.414 1.414-5.33-5.33v2.586Z" fill="currentColor"/><path fill-rule="evenodd" clip-rule="evenodd" d="M23 12c0-6.075-4.925-11-11-11S1 5.925 1 12s4.925 11 11 11 11-4.925 11-11Zm-2 0a9 9 0 1 0-18 0 9 9 0 0 0 18 0Z" fill="currentColor"/></svg>
